

shader as_al_surface
[[
    string help = "alShaders alSurface",
    string maya_node_name = "alSurface",
    string maya_classification = "shader/surface"
]]
(
    output closure color outColor = 0
)
{
}
