

shader as_disney_material
[[
    string help = "Material based on the Disney BRDF",
    string maya_node_name = "asDisney",
    int maya_type_id = 0x00127a3d,
    string maya_classification = "appleseed/surface:shader/surface:swatch/AppleseedRenderSwatch"
]]
(
    output closure color outColor = 0
)
{
}
