
shader as_proctex
[[
    string maya_node_name = "asProctex",
    int maya_type_id = 0x00127a3e,
    string maya_classification = "appleseed/texture:textures/other"
]]
(
    output color out_outColor = color(0.0)
    [[
        string param_name = "outColor",
        string param_type = "color"
    ]],
    output float out_outAlpha = 0.0
    [[
        string param_name = "outAlpha",
        string param_type = "float"
    ]]
)
{
}
